X: 31877
T: Pay The Reckoning
R: jig
M: 6/8
K: Gmajor
F|:~G2e dBG|~B3 dBA|~G2e dBG|~A3 AGF|
~G2e dBG|~B3 def|gfe dBG|~A3 AGF:|
|:~g3 ~f3|~e3 def|~g3 efg|~a3 agf|
~g3 ~f3|~e3 def|gfe dBG|~A3 AGF:|

